packages/tokens/icons/videoTutorial/size24Px.svg

<svg viewBox="0 0 24 24" fill="none" xmlns="http://www.w3.org/2000/svg" width="1em" height="1em"><path d="M2.5 6C2.5 5.17157 3.17157 4.5 4 4.5L20 4.5C20.8284 4.5 21.5 5.17157 21.5 6V18C21.5 18.8284 20.8284 19.5 20 19.5H4C3.17157 19.5 2.5 18.8284 2.5 18L2.5 6Z" stroke="currentColor"/><path d="M5.5 16.5713H17.5" stroke="currentColor" stroke-linecap="round"/><path d="M16 16.5713C16 16.8474 15.7761 17.0713 15.5 17.0713C15.2239 17.0713 15 16.8474 15 16.5713C15 16.2951 15.2239 16.0713 15.5 16.0713C15.7761 16.0713 16 16.2951 16 16.5713Z" stroke="currentColor"/><path d="M5.81914 9.81121C5.5795 9.74102 5.5795 9.40156 5.81914 9.33137L11.9305 7.54138C12.0223 7.51451 12.1198 7.51451 12.2116 7.54138L18.323 9.33137C18.5626 9.40156 18.5626 9.74102 18.323 9.81121L12.2116 11.6012C12.1198 11.6281 12.0223 11.6281 11.9305 11.6012L5.81914 9.81121Z" stroke="currentColor" stroke-linejoin="round"/><path d="M17.5 10.0713V12.5713" stroke="currentColor" stroke-linecap="round"/><path d="M8.5 12.0713V14.0713C8.5 14.3474 8.72386 14.5713 9 14.5713H15C15.2761 14.5713 15.5 14.3474 15.5 14.0713V12.0713" stroke="currentColor" stroke-linecap="round" stroke-linejoin="round"/></svg>

<svg xmlns="http://www.w3.org/2000/svg" fill="none" viewBox="0 0 24 24" width="1em" height="1em"><path stroke="currentColor" d="M2.5 6A1.5 1.5 0 0 1 4 4.5h16A1.5 1.5 0 0 1 21.5 6v12a1.5 1.5 0 0 1-1.5 1.5H4A1.5 1.5 0 0 1 2.5 18V6Z"/><path stroke="currentColor" stroke-linecap="round" d="M5.5 16.571h12"/><path stroke="currentColor" d="M16 16.571a.5.5 0 1 1-1 0 .5.5 0 0 1 1 0Z"/><path stroke="currentColor" stroke-linejoin="round" d="M5.82 9.811c-.24-.07-.24-.41 0-.48l6.11-1.79a.5.5 0 0 1 .282 0l6.111 1.79c.24.07.24.41 0 .48l-6.111 1.79a.5.5 0 0 1-.281 0l-6.112-1.79Z"/><path stroke="currentColor" stroke-linecap="round" d="M17.5 10.071v2.5"/><path stroke="currentColor" stroke-linecap="round" stroke-linejoin="round" d="M8.5 12.071v2a.5.5 0 0 0 .5.5h6a.5.5 0 0 0 .5-.5v-2"/></svg>
